ОкеанВКонцеДороги/svg/ch1/ch1bg.svg

<svg xmlns="http://www.w3.org/2000/svg" width="1941" height="700" fill="none" viewBox="0 0 1941 700"><path fill="url(#a)" d="M1542.86 276.217c-3.4.291-14.69 13.818-10.76 49.283-33.47-23.151-78.07 18.097-63 79-65.77-25.438-125.44-6.572-119 49.5-31.06-44.25-106.63-29.348-109.94 21.695-61.61-47.352-112.2-11.402-124.56 30.305-35.39-31.905-97.08-22.24-109.25 13.321-23.246-25.321-63.142-26.694-80.582 14.217-11.109-41.404-75.44-44.104-102.509-10.832-22.049-35.838-62.322-52.32-99.647-11.105-8.797-34.786-37.839-34.787-61.835-15.679-14.397-43.194-67.065-58.143-100.784-19.108-2.706-50.685-65.711-55.118-92.565-39.035 2.326-47.505-47.472-49.085-76.888-28.204 11.203-36.151-28.667-72.601-66.055-60.459-4.536-44.331-23.156-68.788-64.928-73.215 14.207-47.294-25.663-79.803-64.928-70.103 8.747-32.851-18.326-70.287-55.257-57.544 6.906-27.028-53.274-87.231-91.54-36.879C48.832 78.865 0 71.519 0 95.83V700h1941V10.339c-22.76-22.329-80.2-5.259-95.14 20.543-34.86-10.633-43.81 24.317-39.29 35.176-53.26-12.215-76.29 17.733-66.08 50.307-13.66-18.782-39.75-10.408-39.75 12.743-58.34 2.043-81.7 31.524-79.34 60.78-31.41-8.568-98.09 27.702-78.54 86.329"/><defs><radialGradient id="a" cx="0" cy="0" r="1" gradientTransform="matrix(0 640 -2373.6 0 971 101)" gradientUnits="userSpaceOnUse"><stop offset=".137" stop-color="#fff"/><stop offset="1" stop-color="#c2ddf5"/></radialGradient></defs></svg>

<svg width="1941" height="700" viewBox="0 0 1941 700" fill="none" xmlns="http://www.w3.org/2000/svg">
<path d="M1542.86 276.217C1539.46 276.508 1528.17 290.035 1532.1 325.5C1498.63 302.349 1454.03 343.597 1469.1 404.5C1403.33 379.062 1343.66 397.928 1350.1 454C1319.04 409.75 1243.47 424.652 1240.16 475.695C1178.55 428.343 1127.96 464.293 1115.6 506C1080.21 474.095 1018.52 483.76 1006.35 519.321C983.104 494 943.208 492.627 925.768 533.538C914.659 492.134 850.328 489.434 823.259 522.706C801.21 486.868 760.937 470.386 723.612 511.601C714.815 476.815 685.773 476.814 661.777 495.922C647.38 452.728 594.712 437.779 560.993 476.814C558.287 426.129 495.282 421.696 468.428 437.779C470.754 390.274 420.956 388.694 391.54 409.575C402.743 373.424 362.873 336.974 325.485 349.116C320.949 304.785 302.329 280.328 260.557 275.901C274.764 228.607 234.894 196.098 195.629 205.798C204.376 172.947 177.303 135.511 140.372 148.254C147.278 121.226 87.098 61.0229 48.8323 111.375C48.8323 78.8651 0 71.5187 0 95.8302V700H1941V10.3387C1918.24 -11.99 1860.8 5.08036 1845.86 30.8822C1811 20.2489 1802.05 55.1987 1806.57 66.0582C1753.31 53.8431 1730.28 83.7908 1740.49 116.365C1726.83 97.5829 1700.74 105.957 1700.74 129.108C1642.4 131.151 1619.04 160.632 1621.4 189.888C1589.99 181.32 1523.31 217.59 1542.86 276.217Z" fill="url(#paint0_radial_622_43)"/>
<defs>
<radialGradient id="paint0_radial_622_43" cx="0" cy="0" r="1" gradientUnits="userSpaceOnUse" gradientTransform="translate(971 101) rotate(90) scale(640 2373.6)">
<stop offset="0.13674" stop-color="white"/>
<stop offset="1" stop-color="#C2DDF5"/>
</radialGradient>
</defs>
</svg>
